assets/Woman cook/Medium-Light/Flat/woman_cook_flat_medium-light.svg

<svg width="32" height="32" viewBox="0 0 32 32" fill="none" xmlns="http://www.w3.org/2000/svg">
<path d="M23.75 10.7248C23.75 10.0143 23.5431 9.36375 23.1883 8.81333C22.8237 8.26291 21.7004 7.61241 21.7004 6.9519V6.94189C21.7004 6.02118 21.5625 5.18054 21.2077 4.56006H10.8908C10.5853 5.18054 10.4967 6.02118 10.4967 6.94189V6.9519C10.4967 7.61241 9.17626 8.26291 8.81167 8.81333C8.45693 9.35375 8.25 10.0143 8.25 10.7248C8.25 11.2652 8.36825 11.7656 8.58503 12.226C8.654 12.3761 8.654 12.5562 8.58503 12.7063C8.36825 13.1567 8.25 13.6571 8.25 14.1875C8.25 16.0489 9.73792 17.5601 11.5707 17.5601H20.4293C22.2621 17.5601 23.75 16.0489 23.75 14.1875C23.75 13.6571 23.6318 13.1567 23.415 12.7063C23.346 12.5562 23.346 12.3761 23.415 12.226C23.6318 11.7656 23.75 11.2552 23.75 10.7248Z" fill="#FFF9BA"/>
<path d="M11.25 12.5C12.2165 12.5 13 11.7165 13 10.75C13 9.7835 12.2165 9 11.25 9C10.2835 9 9.5 9.7835 9.5 10.75C9.5 11.7165 10.2835 12.5 11.25 12.5Z" fill="#E4B29A"/>
<path d="M20.75 12.5C21.7165 12.5 22.5 11.7165 22.5 10.75C22.5 9.7835 21.7165 9 20.75 9C19.7835 9 19 9.7835 19 10.75C19 11.7165 19.7835 12.5 20.75 12.5Z" fill="#E4B29A"/>
<path d="M22.98 18L20.5 17.5L19 18L21 23L23 30H27V26.4983C27 23.0769 25.4261 20.0167 22.98 18Z" fill="#E6E6E6"/>
<path d="M9 30L11 24L9 18C6.55447 20.0279 5 23.0848 5 26.4983V30H9Z" fill="#E6E6E6"/>
<path d="M9 18L14 17L19 18C21.1767 18 23 19.796 23 22.0033V30H9V18Z" fill="#F4F4F4"/>
<path d="M22.9844 18H17.5C18.1748 18.4721 18.59 19.2351 18.59 20.12V21.79C17.1518 21.79 15.9829 20.623 15.98 19.1855C15.977 20.623 14.8082 21.79 13.37 21.79V20.12C13.37 19.2351 13.8252 18.4721 14.5 18H9L9.00339 17.9898C10.8995 16.4176 13.3291 15.47 15.98 15.47C18.6433 15.47 21.0845 16.4203 22.9844 18Z" fill="#F92F60"/>
<path d="M11.9642 7.33705H15.2784C16.5922 7.33705 17.7865 6.72241 18.523 5.62412C18.6524 5.43268 18.9211 5.47298 19.0007 5.6745L19.0803 5.87602C19.3192 6.46043 19.7671 6.91386 20.3145 7.15568C20.3443 7.17584 20.3841 7.19599 20.4239 7.20606C20.6727 7.32698 21.24 7.70987 21.25 8.7074L21.1107 12.0527C20.9912 15.015 18.732 17 15.995 17C13.2581 17 10.9988 15.015 10.8794 12.0527L10.75 8.86861C10.7699 7.46804 11.7751 7.33705 11.9642 7.33705Z" fill="#EEBFAA"/>
<path d="M13.3361 9.3501C13.9108 9.3501 14.3783 9.7601 14.6705 10.2201C14.3876 10.3101 14.1113 10.3917 13.8355 10.4732C13.437 10.5909 13.0395 10.7083 12.6251 10.8501L12.1381 10.4001C11.9433 10.2201 11.953 9.8801 12.1771 9.7201C12.4985 9.4801 12.927 9.3501 13.3361 9.3501Z" fill="black"/>
<path d="M18.6639 9.36011C18.0893 9.36011 17.6217 9.76011 17.3295 10.2201C17.5693 10.2953 17.8034 10.3647 18.0353 10.4334C18.4816 10.5657 18.9199 10.6956 19.3749 10.8601L19.8619 10.4101C20.0567 10.2201 20.047 9.89011 19.823 9.73011C19.5016 9.49011 19.073 9.36011 18.6639 9.36011Z" fill="black"/>
<path d="M12.1375 10.57C12.2934 9.92996 12.8583 9.45996 13.5206 9.45996C14.2121 9.45996 14.7868 9.95996 14.9134 10.64C14.9426 10.78 14.8257 10.92 14.6796 10.92H12.4102C12.2252 10.92 12.0888 10.74 12.1375 10.57Z" fill="white"/>
<path d="M19.8717 10.57C19.7158 9.93002 19.1509 9.46002 18.4886 9.46002C17.797 9.46002 17.2224 9.96002 17.0958 10.65C17.0666 10.79 17.1834 10.93 17.3295 10.93H19.5989C19.784 10.93 19.9204 10.75 19.8717 10.57Z" fill="white"/>
<path d="M12.8199 10.67C12.8199 10.16 13.2193 9.73999 13.7258 9.73999C14.2322 9.73999 14.6413 10.15 14.6316 10.67C14.6316 10.76 14.6218 10.84 14.6024 10.92H12.8492C12.8297 10.84 12.8199 10.76 12.8199 10.67Z" fill="#7D4533"/>
<path d="M19.1897 10.68C19.1897 10.17 18.7904 9.75 18.2839 9.75C17.7774 9.75 17.3684 10.16 17.3781 10.68C17.3781 10.77 17.3878 10.85 17.4073 10.93H19.1605C19.18 10.85 19.1897 10.77 19.1897 10.68Z" fill="#7D4533"/>
<path d="M13.7257 10.1399C14.0081 10.1399 14.2419 10.3799 14.2419 10.6699C14.2419 10.7599 14.2224 10.8399 14.1835 10.9199H13.2679C13.229 10.8399 13.2095 10.7599 13.2095 10.6699C13.2095 10.3799 13.4432 10.1399 13.7257 10.1399Z" fill="black"/>
<path d="M18.2743 10.1499C17.9918 10.1499 17.7581 10.3899 17.7581 10.6799C17.7581 10.7489 17.7752 10.812 17.792 10.8737C17.7971 10.8925 17.8022 10.9112 17.8068 10.9299H18.7321C18.771 10.8499 18.7905 10.7699 18.7905 10.6799C18.7905 10.3899 18.5567 10.1499 18.2743 10.1499Z" fill="black"/>
<path d="M13.5796 10.2999C13.5796 10.3938 13.5054 10.4699 13.414 10.4699C13.3225 10.4699 13.2484 10.3938 13.2484 10.2999C13.2484 10.206 13.3225 10.1299 13.414 10.1299C13.5054 10.1299 13.5796 10.206 13.5796 10.2999Z" fill="white"/>
<path d="M18.1379 10.2999C18.1379 10.3938 18.0637 10.4699 17.9723 10.4699C17.8808 10.4699 17.8067 10.3938 17.8067 10.2999C17.8067 10.206 17.8808 10.1299 17.9723 10.1299C18.0637 10.1299 18.1379 10.206 18.1379 10.2999Z" fill="white"/>
<path d="M16.0005 13.9064C15.4431 13.9064 14.9363 13.7675 14.4904 13.5219C14.3383 13.4365 14.1863 13.618 14.2775 13.7675C14.6424 14.3656 15.2809 14.75 16.0005 14.75C16.7201 14.75 17.3586 14.3549 17.7235 13.7675C17.8147 13.618 17.6525 13.4365 17.5106 13.5219C17.0748 13.7675 16.5579 13.9064 16.0005 13.9064Z" fill="#990838"/>
<path d="M15.5906 10.5319L15.0271 12.2789C14.9101 12.6343 15.1866 13 15.58 13H16.42C16.8134 13 17.0899 12.6343 16.9729 12.2789L16.4094 10.5319C16.2818 10.156 15.7182 10.156 15.5906 10.5319Z" fill="#D19479"/>
<path d="M19.3201 8.78004C19.3701 8.81004 19.4101 8.82004 19.4601 8.82004C19.5501 8.82004 19.6501 8.77004 19.7001 8.66004C19.7801 8.53004 19.7301 8.36004 19.6001 8.28004C19.6001 8.28004 19.5955 8.27767 19.5912 8.2754C19.4882 8.22054 18.6183 7.7576 17.6101 7.94004C17.4501 7.97004 17.3501 8.12004 17.3801 8.27004C17.4101 8.43004 17.5601 8.53004 17.7101 8.50004C18.4782 8.36287 19.1794 8.7107 19.3014 8.77123C19.3129 8.77689 19.3201 8.78004 19.3201 8.78004Z" fill="#A56953"/>
<path d="M11.81 8.68001C11.86 8.77001 11.95 8.82001 12.05 8.82001C12.1 8.82001 12.15 8.81001 12.19 8.78001C12.19 8.78001 12.1971 8.77691 12.2084 8.77134C12.3296 8.71128 13.0313 8.36359 13.8 8.51001C13.95 8.53001 14.1 8.43001 14.13 8.28001C14.15 8.12001 14.05 7.98001 13.9 7.95001C12.85 7.76001 11.95 8.27001 11.91 8.30001C11.78 8.37001 11.73 8.54001 11.81 8.68001Z" fill="#A56953"/>
<path d="M10.57 2H21.39C23.08 2 23.92 4.04 22.73 5.23L22 6V7C22.01 7.2 21.8 7.38 21.6 7.38H10.35C10.15 7.38 10 7.2 10 7V6L9.23 5.23C8.04 4.04 8.88 2 10.57 2Z" fill="#E6E6E6"/>
<path d="M15.52 6.02992V3.62992C15.52 3.37992 15.72 3.16992 15.98 3.16992C16.23 3.16992 16.44 3.36992 16.44 3.62992V6.02992H15.52Z" fill="#D3D3D3"/>
<path d="M13.39 6.02993H12.48L11.68 3.74993C11.58 3.46993 11.79 3.17993 12.09 3.17993C12.27 3.17993 12.44 3.29993 12.5 3.46993L13.39 6.02993Z" fill="#D3D3D3"/>
<path d="M18.5599 6.02993H19.4699L20.2699 3.74993C20.3699 3.46993 20.1599 3.17993 19.8599 3.17993C19.6799 3.17993 19.5099 3.29993 19.4499 3.46993L18.5599 6.02993Z" fill="#D3D3D3"/>
<path d="M20.3101 21.6099C20.7243 21.6099 21.0601 21.2741 21.0601 20.8599C21.0601 20.4457 20.7243 20.1099 20.3101 20.1099C19.8958 20.1099 19.5601 20.4457 19.5601 20.8599C19.5601 21.2741 19.8958 21.6099 20.3101 21.6099Z" fill="#D3D3D3"/>
<path d="M20.3101 25.2399C20.7243 25.2399 21.0601 24.9041 21.0601 24.4899C21.0601 24.0757 20.7243 23.7399 20.3101 23.7399C19.8958 23.7399 19.5601 24.0757 19.5601 24.4899C19.5601 24.9041 19.8958 25.2399 20.3101 25.2399Z" fill="#D3D3D3"/>
<path d="M20.3101 28.8799C20.7243 28.8799 21.0601 28.5442 21.0601 28.1299C21.0601 27.7157 20.7243 27.3799 20.3101 27.3799C19.8958 27.3799 19.5601 27.7157 19.5601 28.1299C19.5601 28.5442 19.8958 28.8799 20.3101 28.8799Z" fill="#D3D3D3"/>
<path d="M27 23C27.55 23 28 23.4103 28 23.9119V26H26V23.9119C26.01 23.4103 26.45 23 27 23Z" fill="#E4B29A"/>
<path d="M27.3201 16.16C27.0001 15.44 26.2801 14.98 25.4901 14.98C24.7001 14.98 23.9801 15.44 23.6601 16.16C23.2001 17.17 23.2001 18.33 23.6601 19.35C23.8101 19.68 24.0501 19.96 24.3301 20.17C24.6001 20.36 24.7701 20.67 24.7701 21.01V27.97C24.7701 28.36 25.0801 28.7 25.4701 28.71C25.8701 28.72 26.2001 28.39 26.2001 27.99V21C26.2001 20.67 26.3701 20.36 26.6401 20.16C26.9301 19.96 27.1601 19.68 27.3101 19.34C27.7701 18.33 27.7701 17.17 27.3201 16.16Z" fill="#F3C07B"/>
<path d="M25.49 15.6499C24.89 15.6499 24.35 15.9999 24.11 16.5399C23.77 17.2999 23.77 18.1799 24.11 18.9399C24.35 19.4799 24.89 19.8299 25.49 19.8299C26.09 19.8299 26.63 19.4799 26.87 18.9399C27.21 18.1799 27.21 17.2999 26.87 16.5399C26.62 15.9999 26.08 15.6499 25.49 15.6499Z" fill="#F3AD61"/>
<path d="M23.5091 25.5C23.5182 25.1 23.837 24.75 24.2105 24.75H27.2075C27.6447 24.75 28 25.14 28 25.62V29.13C28 29.61 27.6447 30 27.2075 30H24.2105C23.837 30 23.5182 29.69 23.5091 29.28C23.5 29.01 23.6184 28.77 23.8097 28.63C23.6184 28.5 23.5 28.27 23.5 28.01C23.5 27.75 23.6275 27.52 23.8097 27.39C23.6184 27.26 23.5 27.03 23.5 26.77C23.5 26.51 23.6275 26.28 23.8097 26.15C23.6275 26.01 23.5 25.77 23.5091 25.5Z" fill="#EEBFAA"/>
</svg>

<svg xmlns="http://www.w3.org/2000/svg" width="32" height="32" fill="none"><path fill="#FFF9BA" d="M23.75 10.725c0-.71-.207-1.361-.562-1.912-.364-.55-1.488-1.2-1.488-1.861v-.01c0-.92-.137-1.761-.492-2.382H10.89c-.306.62-.394 1.461-.394 2.382v.01c0 .66-1.32 1.31-1.685 1.861a3.478 3.478 0 0 0-.562 1.912c0 .54.118 1.04.335 1.501.069.15.069.33 0 .48-.217.45-.335.951-.335 1.482 0 1.86 1.488 3.372 3.32 3.372h8.86c1.832 0 3.32-1.511 3.32-3.372 0-.53-.118-1.031-.335-1.482a.583.583 0 0 1 0-.48c.217-.46.335-.97.335-1.501Z"/><path fill="#E4B29A" d="M11.25 12.5a1.75 1.75 0 1 0 0-3.5 1.75 1.75 0 0 0 0 3.5ZM20.75 12.5a1.75 1.75 0 1 0 0-3.5 1.75 1.75 0 0 0 0 3.5Z"/><path fill="#E6E6E6" d="m22.98 18-2.48-.5-1.5.5 2 5 2 7h4v-3.502c0-3.421-1.574-6.481-4.02-8.498ZM9 30l2-6-2-6a11.015 11.015 0 0 0-4 8.498V30h4Z"/><path fill="#F4F4F4" d="m9 18 5-1 5 1c2.177 0 4 1.796 4 4.003V30H9V18Z"/><path fill="#F92F60" d="M22.984 18H17.5a2.548 2.548 0 0 1 1.09 2.12v1.67a2.612 2.612 0 0 1-2.61-2.604 2.612 2.612 0 0 1-2.61 2.604v-1.67c0-.885.455-1.648 1.13-2.12H9l.003-.01a10.893 10.893 0 0 1 6.977-2.52c2.663 0 5.104.95 7.004 2.53Z"/><path fill="#EEBFAA" d="M11.964 7.337h3.314c1.314 0 2.508-.615 3.245-1.713a.268.268 0 0 1 .478.05l.08.202a2.377 2.377 0 0 0 1.233 1.28c.03.02.07.04.11.05.249.121.816.504.826 1.501l-.14 3.346C20.992 15.015 18.733 17 15.996 17s-4.996-1.985-5.116-4.947l-.129-3.184c.02-1.401 1.025-1.532 1.214-1.532Z"/><path fill="#000" d="M13.336 9.35c.575 0 1.042.41 1.335.87-.283.09-.56.172-.835.253-.399.118-.796.235-1.21.377l-.488-.45a.447.447 0 0 1 .04-.68c.32-.24.749-.37 1.158-.37ZM18.664 9.36c-.575 0-1.042.4-1.335.86.24.075.474.145.706.213.447.133.885.263 1.34.427l.487-.45c.195-.19.185-.52-.039-.68a1.98 1.98 0 0 0-1.16-.37Z"/><path fill="#fff" d="M12.137 10.57c.156-.64.721-1.11 1.384-1.11.691 0 1.266.5 1.392 1.18.03.14-.087.28-.233.28h-2.27a.281.281 0 0 1-.273-.35ZM19.872 10.57a1.438 1.438 0 0 0-1.383-1.11c-.692 0-1.267.5-1.393 1.19a.24.24 0 0 0 .233.28h2.27c.185 0 .321-.18.273-.36Z"/><path fill="#7D4533" d="M12.82 10.67c0-.51.4-.93.906-.93s.915.41.906.93c0 .09-.01.17-.03.25H12.85c-.02-.08-.03-.16-.03-.25ZM19.19 10.68c0-.51-.4-.93-.906-.93a.904.904 0 0 0-.906.93c0 .09.01.17.03.25h1.752c.02-.08.03-.16.03-.25Z"/><path fill="#000" d="M13.726 10.14c.282 0 .516.24.516.53 0 .09-.02.17-.059.25h-.915a.555.555 0 0 1-.059-.25c0-.29.234-.53.517-.53ZM18.274 10.15a.527.527 0 0 0-.516.53c0 .069.017.132.034.194l.015.056h.925a.555.555 0 0 0 .059-.25c0-.29-.234-.53-.517-.53Z"/><path fill="#fff" d="M13.58 10.3c0 .094-.075.17-.166.17a.168.168 0 0 1-.166-.17c0-.094.075-.17.166-.17.091 0 .166.076.166.17ZM18.138 10.3c0 .094-.074.17-.166.17a.168.168 0 0 1-.165-.17c0-.094.074-.17.165-.17.092 0 .166.076.166.17Z"/><path fill="#990838" d="M16 13.906a3.097 3.097 0 0 1-1.51-.384c-.152-.085-.304.096-.213.245A2.016 2.016 0 0 0 16 14.75c.72 0 1.359-.395 1.724-.982.09-.15-.072-.332-.213-.246a3.068 3.068 0 0 1-1.51.384Z"/><path fill="#D19479" d="m15.59 10.532-.563 1.747c-.117.355.16.721.553.721h.84c.393 0 .67-.366.553-.721l-.564-1.747c-.127-.376-.69-.376-.818 0Z"/><path fill="#A56953" d="M19.32 8.78c.05.03.09.04.14.04.09 0 .19-.05.24-.16.08-.13.03-.3-.1-.38l-.009-.005c-.103-.054-.973-.517-1.98-.335-.16.03-.26.18-.23.33.03.16.18.26.33.23.767-.137 1.468.21 1.59.271l.02.009ZM11.81 8.68c.05.09.14.14.24.14.05 0 .1-.01.14-.04l.018-.009c.122-.06.823-.407 1.592-.261.15.02.3-.08.33-.23.02-.16-.08-.3-.23-.33-1.05-.19-1.95.32-1.99.35-.13.07-.18.24-.1.38Z"/><path fill="#E6E6E6" d="M10.57 2h10.82c1.69 0 2.53 2.04 1.34 3.23L22 6v1c.01.2-.2.38-.4.38H10.35c-.2 0-.35-.18-.35-.38V6l-.77-.77C8.04 4.04 8.88 2 10.57 2Z"/><path fill="#D3D3D3" d="M15.52 6.03v-2.4c0-.25.2-.46.46-.46.25 0 .46.2.46.46v2.4h-.92ZM13.39 6.03h-.91l-.8-2.28c-.1-.28.11-.57.41-.57.18 0 .35.12.41.29l.89 2.56ZM18.56 6.03h.91l.8-2.28c.1-.28-.11-.57-.41-.57-.18 0-.35.12-.41.29l-.89 2.56ZM20.31 21.61a.75.75 0 1 0 0-1.5.75.75 0 0 0 0 1.5ZM20.31 25.24a.75.75 0 1 0 0-1.5.75.75 0 0 0 0 1.5ZM20.31 28.88a.75.75 0 1 0 0-1.5.75.75 0 0 0 0 1.5Z"/><path fill="#E4B29A" d="M27 23c.55 0 1 .41 1 .912V26h-2v-2.088c.01-.502.45-.912 1-.912Z"/><path fill="#F3C07B" d="M27.32 16.16a2 2 0 0 0-1.83-1.18 2 2 0 0 0-1.83 1.18 3.86 3.86 0 0 0 0 3.19c.15.33.39.61.67.82.27.19.44.5.44.84v6.96c0 .39.31.73.7.74.4.01.73-.32.73-.72V21c0-.33.17-.64.44-.84.29-.2.52-.48.67-.82.46-1.01.46-2.17.01-3.18Z"/><path fill="#F3AD61" d="M25.49 15.65c-.6 0-1.14.35-1.38.89-.34.76-.34 1.64 0 2.4.24.54.78.89 1.38.89.6 0 1.14-.35 1.38-.89.34-.76.34-1.64 0-2.4-.25-.54-.79-.89-1.38-.89Z"/><path fill="#EEBFAA" d="M23.51 25.5c.008-.4.327-.75.7-.75h2.997c.438 0 .793.39.793.87v3.51c0 .48-.355.87-.793.87H24.21c-.373 0-.692-.31-.7-.72-.01-.27.108-.51.3-.65a.74.74 0 0 1-.31-.62c0-.26.128-.49.31-.62a.74.74 0 0 1-.31-.62c0-.26.128-.49.31-.62a.79.79 0 0 1-.3-.65Z"/></svg>
